X: 15
T: Jump At The Sun
R: jig
M: 6/8
L: 1/8
K: Emin
|:"Em"EGB ^A2B|EGB ^A2B|eBB eBB| BAG"B"F3|
"E"EGB ^A2B|EGB ^A2B|eBB "Am"cBA|"B7"GAF "Em"E2:|
B|:"Em"eBB efg|"B7"fBB bag|"Em"fBB gfe|"B"fdB "B7"c2B|
"Em"eBB efg|"B7"fBB bag|"Em"fBB "Am"cBA|"B7"GAF "Em"E2:|


Tune 736	Setting 13810

